packages/other/assets/technologies/theory.svg

<svg xmlns="http://www.w3.org/2000/svg" viewBox="0 0 39 39">
  <title>Theory</title>
  <g fill="none" fill-rule="evenodd">
    <circle cx="19.261" cy="19.261" r="19.261" fill="#05192D"/>
    <path fill="#FFF" d="M23.7913986,7.94498667 C25.0696455,7.94498667 26.1932525,8.60756567 26.8379847,9.60825022 C26.3254118,9.75112794 25.8503868,9.99175174 25.4356848,10.3106788 L25.2334662,10.4765776 L25.2114735,10.4814857 C25.1782921,10.4909655 25.1454359,10.5032398 25.1131997,10.5184144 C24.3709456,10.8678179 23.783259,10.9188749 23.3163449,10.713902 C22.9901022,10.5706831 22.609522,10.7190356 22.4662953,11.0452566 C22.3230686,11.3714776 22.4714324,11.7520338 22.7976752,11.8952527 C23.20158,12.0725649 23.6333528,12.1458657 24.0885429,12.1186035 C23.9613879,12.4516376 23.8751275,12.8067554 23.8364834,13.1784634 C23.7996456,13.5328286 24.0570686,13.8499654 24.4114565,13.8868088 C24.7658446,13.9236514 25.082998,13.666249 25.1198385,13.311884 C25.2462532,12.0959163 26.1090663,11.1391521 27.2141864,10.8425371 L27.3889293,10.8009867 L27.5371225,10.8131213 C29.3580452,11.0041816 30.7773034,12.5453135 30.7773034,14.4181748 C30.7773034,14.571702 30.7677662,14.723 30.7492334,14.8714863 C28.9525896,14.3335759 26.963828,15.0905689 25.9609315,16.8298723 C25.9289698,16.8853028 25.9061655,16.9435014 25.8946525,17.0019206 C25.4737997,16.9475921 25.0037869,16.9911314 24.4935633,17.1338842 C24.1504427,17.2298841 23.9501137,17.5858428 24.0461158,17.9289404 C24.142118,18.2720379 24.4980972,18.4723501 24.8412178,18.3763503 C25.787148,18.1116934 26.2841977,18.3119801 26.5784149,19.0142079 C26.716091,19.3428088 27.0941016,19.497588 27.4227251,19.3599169 C27.7513486,19.2222458 27.9061419,18.8442577 27.7684658,18.5156568 C27.6202715,18.1619516 27.4293935,17.8686656 27.2003599,17.6364796 L27.0583973,17.5045054 L27.0787144,17.4743114 C27.7744671,16.2676814 29.1308446,15.7439517 30.3616596,16.1018166 L30.3560157,16.1127746 C31.6208104,16.6782786 32.5022182,17.9481851 32.5022182,19.4241069 C32.5022182,20.8854585 31.6381269,22.1448423 30.3930687,22.7171988 C30.6388951,23.2063496 30.7773034,23.7588644 30.7773034,24.3437299 C30.7773034,26.0528184 29.5954073,27.4856572 28.0049209,27.8683717 L28.043552,27.8595166 C26.7959551,28.1417959 25.9658634,27.6663089 25.3616003,26.2651959 C25.1964216,25.8821939 24.750058,25.7061313 24.3646193,25.8719491 C23.9791806,26.0377668 23.8006246,26.4826732 23.9658033,26.8656753 C24.5767954,28.282391 25.5028116,29.1389566 26.679708,29.3791988 C26.0196506,30.252259 24.9714177,30.816918 23.7913986,30.816918 C21.8553799,30.816918 20.274102,29.2969751 20.1740986,27.3844518 L20.1690776,27.1919327 L20.1689293,22.6069867 L21.8794888,22.607964 C22.0036061,23.0807531 22.2887809,23.5182273 22.737621,23.9052651 C23.0074369,24.1379291 23.4147797,24.107793 23.6474466,23.8379542 C23.8801135,23.5681153 23.8499983,23.1607563 23.5801824,22.9280923 C22.9683164,22.4004762 22.9294522,21.8255509 23.5058148,20.9584745 C23.7030528,20.6617508 23.6224219,20.2613204 23.3257206,20.0640881 C23.0290193,19.8668558 22.6286024,19.9475096 22.4313643,20.2442333 C22.23735,20.5361072 22.0883102,20.8244933 21.9846443,21.1070745 L21.9154088,21.3178858 L20.1689293,21.3169867 L20.1690776,11.2683956 L20.1808838,11.2751641 C20.3308087,9.4110183 21.8900245,7.94498667 23.7913986,7.94498667 Z M14.7297489,7.94498667 C16.631123,7.94498667 18.1903388,9.4110183 18.3402637,11.2751641 L18.3520699,11.2683956 L18.3519293,14.6869867 L18.3159748,14.6862323 C16.161887,14.8010521 14.873101,14.0557818 14.2881018,12.3960541 L14.223716,12.2004858 C14.1191654,11.8598946 13.7582888,11.6685403 13.4176755,11.7730841 C13.0770622,11.8776278 12.8856955,12.238481 12.990246,12.5790722 C13.7002486,14.8920265 15.4605144,16.0457299 18.1076578,15.9851854 L18.3519293,15.9749867 L18.3520699,27.1919327 C18.3520699,29.1939568 16.7303015,30.816918 14.7297489,30.816918 C13.4738156,30.816918 12.3671703,30.1772696 11.7173629,29.2057487 C11.5308287,28.8232359 11.4258718,28.3938523 11.4258718,27.9399563 C11.4258718,26.3485953 12.7160085,25.0585424 14.3074728,25.0585424 C14.6637708,25.0585424 14.9526074,24.7697245 14.9526074,24.4134497 C14.9526074,24.0571748 14.6637708,23.768357 14.3074728,23.768357 C13.831293,23.768357 13.3737465,23.8481305 12.9492986,23.9949807 C13.1659216,23.2989717 13.2480082,22.6839723 13.1913415,22.1448244 C13.1541006,21.7905013 12.8366566,21.5334573 12.4823105,21.5707006 C12.1279644,21.6079438 11.8708997,21.9253711 11.9081406,22.2796943 C11.9826358,22.9884692 11.6597667,24.057407 10.9108397,25.451411 C10.8851212,25.4992818 10.8660647,25.5489498 10.853945,25.5989365 C10.4458828,26.1996708 10.1904753,26.9124671 10.1434744,27.6815771 L10.1399293,27.7699867 L10.1407346,27.7560295 C8.74323964,27.2533483 7.74384407,25.9153356 7.74384407,24.3437299 C7.74384407,23.7588644 7.8822524,23.2063496 8.12807878,22.7171988 C6.88302063,22.1448423 6.0189293,20.8854585 6.0189293,19.4241069 C6.0189293,19.2212239 6.03558418,19.0222338 6.06760035,18.8284309 C6.34286451,17.475242 7.53972903,16.4573067 8.97436051,16.4573067 C9.95390245,16.4573067 10.8503212,16.9351824 11.4004364,17.7144107 C11.0765439,18.0131021 10.832537,18.4182894 10.6791487,18.9272536 C10.5763436,19.2683756 10.7695555,19.6282443 11.1106997,19.7310427 C11.4518439,19.8338412 11.8117359,19.6406418 11.9145411,19.2995197 C12.147674,18.5259515 12.6570869,18.2566041 13.6836284,18.4304657 C14.0349229,18.4899632 14.3679388,18.2534335 14.4274402,17.9021618 C14.4869415,17.5508901 14.2503964,17.2178958 13.8991019,17.1583983 C13.4926824,17.0895645 13.1159752,17.0756033 12.7726884,17.1155753 L12.5707565,17.146023 L12.4826222,17.0113966 C11.6963979,15.8696106 10.3955993,15.1671213 8.97436051,15.1671213 C8.58726092,15.1671213 8.21222641,15.2187747 7.8557743,15.3155646 C7.78272962,15.0290964 7.74384407,14.72818 7.74384407,14.4181748 C7.74384407,12.4807321 9.2626698,10.8982911 11.1737874,10.7982142 L11.1889293,10.7979867 L11.2352555,10.6120199 C11.6550554,9.07484148 13.0605533,7.94498667 14.7297489,7.94498667 Z"/>
  </g>
</svg>

<svg xmlns="http://www.w3.org/2000/svg" xmlns:xlink="http://www.w3.org/1999/xlink" width="39" height="39"><title>Theory</title><defs><linearGradient id="b" x1="50%" x2="50%" y1="0%" y2="100%"><stop offset="0%" stop-color="#34A6D0"/><stop offset="100%" stop-color="#3C5A88"/></linearGradient><circle id="a" cx="19.261" cy="19.261" r="19.261"/></defs><g fill="none" fill-rule="evenodd"><mask id="c" fill="#fff"><use xlink:href="#a"/></mask><use fill="#D8D8D8" xlink:href="#a"/><path fill="url(#b)" mask="url(#c)" d="M-.963-.241h40.246v39.096H-.963z"/><path fill="#FFF" d="M23.791 7.945c1.279 0 2.402.663 3.047 1.663a4.112 4.112 0 00-1.402.703l-.203.166-.022.004a.65.65 0 00-.098.037c-.742.35-1.33.4-1.797.196a.645.645 0 00-.518 1.181c.404.178.835.25 1.29.224a4.18 4.18 0 00-.252 1.06.645.645 0 001.284.133 2.857 2.857 0 012.094-2.47l.175-.041.148.012a3.624 3.624 0 013.212 4.058c-1.796-.537-3.785.22-4.788 1.959a.566.566 0 00-.066.172c-.421-.054-.891-.01-1.401.132a.645.645 0 10.347 1.242c.946-.264 1.443-.064 1.737.638a.645.645 0 001.19-.498 2.75 2.75 0 00-.568-.88l-.142-.131.02-.03c.696-1.207 2.053-1.731 3.284-1.373l-.006.01a3.626 3.626 0 01.037 6.605 3.626 3.626 0 01-2.388 5.151l.039-.008c-1.248.282-2.078-.194-2.682-1.595a.758.758 0 00-.997-.393.757.757 0 00-.4.994c.612 1.416 1.538 2.273 2.715 2.513a3.624 3.624 0 01-6.506-1.995l-.005-.192v-4.585l1.71.001c.125.473.41.91.859 1.297a.645.645 0 10.842-.977c-.612-.528-.65-1.102-.074-1.97a.645.645 0 10-1.075-.714 4.15 4.15 0 00-.446.863l-.07.21H20.17V11.268l.012.007a3.624 3.624 0 013.61-3.33zm-9.061 0a3.624 3.624 0 013.61 3.33l.012-.007v3.419h-.036c-2.154.114-3.443-.631-4.028-2.29l-.064-.197a.645.645 0 00-1.234.38c.71 2.312 2.47 3.466 5.118 3.405l.244-.01v11.217a3.624 3.624 0 01-6.635 2.014 2.882 2.882 0 012.59-4.147.645.645 0 100-1.29c-.476 0-.933.08-1.358.226.217-.696.299-1.311.242-1.85a.645.645 0 00-1.283.135c.075.708-.248 1.777-.997 3.171a.622.622 0 00-.057.148 4.148 4.148 0 00-.71 2.083l-.004.088v-.014a3.626 3.626 0 01-2.012-5.039 3.622 3.622 0 01-2.06-3.889 2.967 2.967 0 015.332-1.114c-.323.3-.567.704-.72 1.213a.645.645 0 101.235.373c.233-.774.742-1.043 1.769-.87a.645.645 0 10.215-1.272 3.995 3.995 0 00-1.126-.042l-.202.03-.088-.135a4.254 4.254 0 00-4.627-1.695 3.63 3.63 0 013.318-4.518h.015l.046-.186a3.624 3.624 0 013.495-2.667z"/></g></svg>
